packages/design-system/site/assets/images/loading/img-stencil-table.svg

<?xml version="1.0" encoding="UTF-8" standalone="no"?>
<svg width="287px" height="275px" viewBox="0 0 287 275" version="1.1" xmlns="http://www.w3.org/2000/svg" xmlns:xlink="http://www.w3.org/1999/xlink" xmlns:sketch="http://www.bohemiancoding.com/sketch/ns">
    <!-- Generator: Sketch 3.3.3 (12081) - http://www.bohemiancoding.com/sketch -->
    <title>list copy 2</title>
    <desc>Created with Sketch.</desc>
    <defs>
        <linearGradient x1="50%" y1="0%" x2="50%" y2="100%" id="linearGradient-1">
            <stop stop-color="#FFFFFF" stop-opacity="0" offset="0%"></stop>
            <stop stop-color="#FFFFFF" offset="100%"></stop>
        </linearGradient>
    </defs>
    <g id="Page-1" stroke="none" stroke-width="1" fill="none" fill-rule="evenodd" sketch:type="MSPage">
        <g id="Loading" sketch:type="MSArtboardGroup" transform="translate(-299.000000, -2809.000000)">
            <g id="list-copy-2" sketch:type="MSLayerGroup" transform="translate(299.000000, 2809.000000)">
                <rect id="bkgd" stroke="#E1E6EF" fill="#FFFFFF" sketch:type="MSShapeGroup" x="0" y="11.6502034" width="286.747837" height="262.820968"></rect>
                <rect id="Rectangle-553" stroke="#E0E5EE" fill="#F7F9FB" sketch:type="MSShapeGroup" x="12.2766658" y="12.2766658" width="274.471171" height="31.5685692"></rect>
                <g id="Component---Top-Bar-Copy-12" sketch:type="MSShapeGroup">
                    <rect id="Background" stroke="#E1E6EF" fill="#FFFFFF" x="0" y="0" width="286.747837" height="13.2185"></rect>
                    <path d="M20.7326568,3.8787883 C21.0890386,3.5075133 21.5851381,3.2771449 22.1338749,3.2771449 C22.8632079,3.2771449 23.4996452,3.68387106 23.8384527,4.28775955 C24.1330679,4.15613269 24.4590047,4.08287836 24.8019599,4.08287836 C26.1175087,4.08287836 27.1840457,5.15883604 27.1840457,6.48613775 C27.1840457,7.81346083 26.1175087,8.88939713 24.8019599,8.88939713 C24.6413326,8.88939713 24.4844254,8.87327519 24.3326922,8.84265634 C24.0343355,9.37493691 23.4655229,9.73460154 22.8128582,9.73460154 C22.5396657,9.73460154 22.2811826,9.67154637 22.0510278,9.55924873 C21.7485661,10.2709661 21.0436063,10.7699764 20.2222541,10.7699764 C19.3667369,10.7699764 18.6375749,10.2286727 18.3578401,9.46944482 C18.2354829,9.49529552 18.1087214,9.50891578 17.9787529,9.50891578 C16.9601924,9.50891578 16.1345215,8.67455198 16.1345215,7.64529233 C16.1345215,6.95549144 16.5054203,6.35324935 17.0567227,6.03100301 C16.9431954,5.76975917 16.8801888,5.48157417 16.8801888,5.17861428 C16.8801888,3.99482777 17.8410021,3.03518753 19.0262618,3.03518753 C19.7221352,3.03518753 20.3405278,3.36605077 20.7326568,3.8787883" id="Fill-1-Copy" fill="#1AA2DD"></path>
                </g>
                <path d="M12.7151182,60.9448767 L285.839622,60.9448767" id="Line" stroke="#E1E6EF" stroke-linecap="square" sketch:type="MSShapeGroup"></path>
                <path d="M12.7151182,78.4829707 L285.839622,78.4829707" id="Line-Copy-4" stroke="#E1E6EF" stroke-linecap="square" sketch:type="MSShapeGroup"></path>
                <path d="M12.7151182,96.0210647 L285.839622,96.0210647" id="Line-Copy-5" stroke="#E1E6EF" stroke-linecap="square" sketch:type="MSShapeGroup"></path>
                <path d="M12.7151182,113.559159 L285.839622,113.559159" id="Line-Copy-7" stroke="#E1E6EF" stroke-linecap="square" sketch:type="MSShapeGroup"></path>
                <path d="M12.7151182,131.097253 L285.839622,131.097253" id="Line-Copy-8" stroke="#E1E6EF" stroke-linecap="square" sketch:type="MSShapeGroup"></path>
                <path d="M12.7151182,148.635347 L285.839622,148.635347" id="Line-Copy-9" stroke="#E1E6EF" stroke-linecap="square" sketch:type="MSShapeGroup"></path>
                <path d="M12.7151182,166.173441 L285.839622,166.173441" id="Line-Copy-10" stroke="#E1E6EF" stroke-linecap="square" sketch:type="MSShapeGroup"></path>
                <path d="M12.7151182,183.711535 L285.839622,183.711535" id="Line-Copy-11" stroke="#E1E6EF" stroke-linecap="square" sketch:type="MSShapeGroup"></path>
                <path d="M12.7151182,201.249629 L285.839622,201.249629" id="Line-Copy-12" stroke="#E1E6EF" stroke-linecap="square" sketch:type="MSShapeGroup"></path>
                <path d="M12.7151182,218.787723 L285.839622,218.787723" id="Line-Copy-13" stroke="#E1E6EF" stroke-linecap="square" sketch:type="MSShapeGroup"></path>
                <path d="M12.7151182,236.711535 L285.839622,236.711535" id="Line-Copy-15" stroke="#E1E6EF" stroke-linecap="square" sketch:type="MSShapeGroup"></path>
                <path d="M12.7151182,254.249629 L285.839622,254.249629" id="Line-Copy-16" stroke="#E1E6EF" stroke-linecap="square" sketch:type="MSShapeGroup"></path>
                <g id="Component---Left-Bar---Expanded-Copy-16" transform="translate(0.000000, 0.224042)" fill="#16325C" sketch:type="MSShapeGroup">
                    <rect id="BG" x="0" y="0" width="12.7692396" height="274.149638"></rect>
                </g>
                <g id="Group" transform="translate(23.000000, 51.000000)" fill="#E1E6EF" sketch:type="MSShapeGroup">
                    <rect id="Rectangle-232-Copy-133" x="0" y="0" width="59.5664062" height="1.87471083" rx="4"></rect>
                    <rect id="Rectangle-232-Copy-134" x="70" y="0" width="59.5664062" height="1.87471083" rx="4"></rect>
                    <rect id="Rectangle-232-Copy-135" x="191" y="0" width="59.5664062" height="1.87471083" rx="4"></rect>
                    <rect id="Rectangle-232-Copy-136" x="141" y="0" width="39" height="1.87471083" rx="4"></rect>
                    <rect id="Rectangle-232-Copy-140" x="0" y="18" width="59.5664062" height="1.87471083" rx="4"></rect>
                    <rect id="Rectangle-232-Copy-137" x="70" y="18" width="59.5664062" height="1.87471083" rx="4"></rect>
                    <rect id="Rectangle-232-Copy-138" x="191" y="18" width="59.5664062" height="1.87471083" rx="4"></rect>
                    <rect id="Rectangle-232-Copy-139" x="141" y="18" width="39" height="1.87471083" rx="4"></rect>
                    <rect id="Rectangle-232-Copy-144" x="0" y="35" width="59.5664062" height="1.87471083" rx="4"></rect>
                    <rect id="Rectangle-232-Copy-141" x="70" y="35" width="59.5664062" height="1.87471083" rx="4"></rect>
                    <rect id="Rectangle-232-Copy-142" x="191" y="35" width="59.5664062" height="1.87471083" rx="4"></rect>
                    <rect id="Rectangle-232-Copy-143" x="141" y="35" width="39" height="1.87471083" rx="4"></rect>
                    <rect id="Rectangle-232-Copy-148" x="0" y="53" width="59.5664062" height="1.87471083" rx="4"></rect>
                    <rect id="Rectangle-232-Copy-145" x="70" y="53" width="59.5664062" height="1.87471083" rx="4"></rect>
                    <rect id="Rectangle-232-Copy-146" x="191" y="53" width="59.5664062" height="1.87471083" rx="4"></rect>
                    <rect id="Rectangle-232-Copy-147" x="141" y="53" width="39" height="1.87471083" rx="4"></rect>
                    <rect id="Rectangle-232-Copy-152" x="0" y="71" width="59.5664062" height="1.87471083" rx="4"></rect>
                    <rect id="Rectangle-232-Copy-149" x="70" y="71" width="59.5664062" height="1.87471083" rx="4"></rect>
                    <rect id="Rectangle-232-Copy-150" x="191" y="71" width="59.5664062" height="1.87471083" rx="4"></rect>
                    <rect id="Rectangle-232-Copy-151" x="141" y="71" width="39" height="1.87471083" rx="4"></rect>
                    <rect id="Rectangle-232-Copy-156" x="0" y="89" width="59.5664062" height="1.87471083" rx="4"></rect>
                    <rect id="Rectangle-232-Copy-153" x="70" y="89" width="59.5664062" height="1.87471083" rx="4"></rect>
                    <rect id="Rectangle-232-Copy-154" x="191" y="89" width="59.5664062" height="1.87471083" rx="4"></rect>
                    <rect id="Rectangle-232-Copy-155" x="141" y="89" width="39" height="1.87471083" rx="4"></rect>
                    <rect id="Rectangle-232-Copy-160" x="0" y="106" width="59.5664062" height="1.87471083" rx="4"></rect>
                    <rect id="Rectangle-232-Copy-157" x="70" y="106" width="59.5664062" height="1.87471083" rx="4"></rect>
                    <rect id="Rectangle-232-Copy-158" x="191" y="106" width="59.5664062" height="1.87471083" rx="4"></rect>
                    <rect id="Rectangle-232-Copy-159" x="141" y="106" width="39" height="1.87471083" rx="4"></rect>
                    <rect id="Rectangle-232-Copy-164" x="0" y="124" width="59.5664062" height="1.87471083" rx="4"></rect>
                    <rect id="Rectangle-232-Copy-161" x="70" y="124" width="59.5664062" height="1.87471083" rx="4"></rect>
                    <rect id="Rectangle-232-Copy-162" x="191" y="124" width="59.5664062" height="1.87471083" rx="4"></rect>
                    <rect id="Rectangle-232-Copy-163" x="141" y="124" width="39" height="1.87471083" rx="4"></rect>
                    <rect id="Rectangle-232-Copy-168" x="0" y="141" width="59.5664062" height="1.87471083" rx="4"></rect>
                    <rect id="Rectangle-232-Copy-165" x="70" y="141" width="59.5664062" height="1.87471083" rx="4"></rect>
                    <rect id="Rectangle-232-Copy-166" x="191" y="141" width="59.5664062" height="1.87471083" rx="4"></rect>
                    <rect id="Rectangle-232-Copy-167" x="141" y="141" width="39" height="1.87471083" rx="4"></rect>
                    <rect id="Rectangle-232-Copy-172" x="0" y="158" width="59.5664062" height="1.87471083" rx="4"></rect>
                    <rect id="Rectangle-232-Copy-169" x="70" y="158" width="59.5664062" height="1.87471083" rx="4"></rect>
                    <rect id="Rectangle-232-Copy-170" x="191" y="158" width="59.5664062" height="1.87471083" rx="4"></rect>
                    <rect id="Rectangle-232-Copy-171" x="141" y="158" width="39" height="1.87471083" rx="4"></rect>
                    <rect id="Rectangle-232-Copy-176" x="0" y="176" width="59.5664062" height="1.87471083" rx="4"></rect>
                    <rect id="Rectangle-232-Copy-173" x="70" y="176" width="59.5664062" height="1.87471083" rx="4"></rect>
                    <rect id="Rectangle-232-Copy-174" x="191" y="176" width="59.5664062" height="1.87471083" rx="4"></rect>
                    <rect id="Rectangle-232-Copy-175" x="141" y="176" width="39" height="1.87471083" rx="4"></rect>
                    <rect id="Rectangle-232-Copy-180" x="0" y="193" width="59.5664062" height="1.87471083" rx="4"></rect>
                    <rect id="Rectangle-232-Copy-177" x="70" y="193" width="59.5664062" height="1.87471083" rx="4"></rect>
                    <rect id="Rectangle-232-Copy-178" x="191" y="193" width="59.5664062" height="1.87471083" rx="4"></rect>
                    <rect id="Rectangle-232-Copy-179" x="141" y="193" width="39" height="1.87471083" rx="4"></rect>
                    <rect id="Rectangle-232-Copy-184" x="0" y="212" width="59.5664062" height="1.87471083" rx="4"></rect>
                    <rect id="Rectangle-232-Copy-181" x="70" y="212" width="59.5664062" height="1.87471083" rx="4"></rect>
                    <rect id="Rectangle-232-Copy-182" x="191" y="212" width="59.5664062" height="1.87471083" rx="4"></rect>
                    <rect id="Rectangle-232-Copy-183" x="141" y="212" width="39" height="1.87471083" rx="4"></rect>
                </g>
                <rect id="Rectangle-813" fill="url(#linearGradient-1)" sketch:type="MSShapeGroup" x="13" y="44" width="273" height="229"></rect>
            </g>
        </g>
    </g>
</svg>

<svg width="287" height="275" xmlns="http://www.w3.org/2000/svg"><defs><linearGradient x1="50%" y1="0%" x2="50%" y2="100%" id="a"><stop stop-color="#FFF" stop-opacity="0" offset="0%"/><stop stop-color="#FFF" offset="100%"/></linearGradient></defs><g fill="none" fill-rule="evenodd"><path stroke="#E1E6EF" fill="#FFF" d="M0 11.65h286.748v262.82H0z"/><path stroke="#E0E5EE" fill="#F7F9FB" d="M12.277 12.277h274.47v31.57H12.277z"/><path stroke="#E1E6EF" fill="#FFF" d="M0 0h286.748v13.22H0z"/><path d="M20.733 3.88c.356-.372.852-.603 1.4-.603.73 0 1.367.407 1.705 1.01.295-.13.62-.204.964-.204 1.316 0 2.382 1.076 2.382 2.403S26.118 8.89 24.802 8.89c-.16 0-.318-.017-.47-.047-.298.532-.866.892-1.52.892-.272 0-.53-.063-.76-.176-.303.71-1.008 1.21-1.83 1.21-.855 0-1.584-.54-1.864-1.3-.123.024-.25.04-.38.04-1.018 0-1.843-.836-1.843-1.866 0-.69.37-1.292.922-1.614-.114-.26-.177-.548-.177-.85 0-1.185.96-2.145 2.146-2.145.696 0 1.315.33 1.707.844" fill="#1AA2DD"/><path d="M12.715 60.945H285.84M12.715 78.483H285.84M12.715 96.02H285.84M12.715 113.56H285.84M12.715 131.097H285.84M12.715 148.635H285.84M12.715 166.173H285.84m-273.125 17.54H285.84M12.715 201.25H285.84M12.715 218.788H285.84M12.715 236.712H285.84M12.715 254.25H285.84" stroke="#E1E6EF" stroke-linecap="square"/><path d="M0 .224h12.77v274.15H0z" fill="#16325C"/><g transform="translate(23 51)" fill="#E1E6EF"><rect width="59.566" height="1.875" rx="4"/><rect x="70" width="59.566" height="1.875" rx="4"/><rect x="191" width="59.566" height="1.875" rx="4"/><rect x="141" width="39" height="1.875" rx="4"/><rect y="18" width="59.566" height="1.875" rx="4"/><rect x="70" y="18" width="59.566" height="1.875" rx="4"/><rect x="191" y="18" width="59.566" height="1.875" rx="4"/><rect x="141" y="18" width="39" height="1.875" rx="4"/><rect y="35" width="59.566" height="1.875" rx="4"/><rect x="70" y="35" width="59.566" height="1.875" rx="4"/><rect x="191" y="35" width="59.566" height="1.875" rx="4"/><rect x="141" y="35" width="39" height="1.875" rx="4"/><rect y="53" width="59.566" height="1.875" rx="4"/><rect x="70" y="53" width="59.566" height="1.875" rx="4"/><rect x="191" y="53" width="59.566" height="1.875" rx="4"/><rect x="141" y="53" width="39" height="1.875" rx="4"/><rect y="71" width="59.566" height="1.875" rx="4"/><rect x="70" y="71" width="59.566" height="1.875" rx="4"/><rect x="191" y="71" width="59.566" height="1.875" rx="4"/><rect x="141" y="71" width="39" height="1.875" rx="4"/><rect y="89" width="59.566" height="1.875" rx="4"/><rect x="70" y="89" width="59.566" height="1.875" rx="4"/><rect x="191" y="89" width="59.566" height="1.875" rx="4"/><rect x="141" y="89" width="39" height="1.875" rx="4"/><rect y="106" width="59.566" height="1.875" rx="4"/><rect x="70" y="106" width="59.566" height="1.875" rx="4"/><rect x="191" y="106" width="59.566" height="1.875" rx="4"/><rect x="141" y="106" width="39" height="1.875" rx="4"/><rect y="124" width="59.566" height="1.875" rx="4"/><rect x="70" y="124" width="59.566" height="1.875" rx="4"/><rect x="191" y="124" width="59.566" height="1.875" rx="4"/><rect x="141" y="124" width="39" height="1.875" rx="4"/><rect y="141" width="59.566" height="1.875" rx="4"/><rect x="70" y="141" width="59.566" height="1.875" rx="4"/><rect x="191" y="141" width="59.566" height="1.875" rx="4"/><rect x="141" y="141" width="39" height="1.875" rx="4"/><rect y="158" width="59.566" height="1.875" rx="4"/><rect x="70" y="158" width="59.566" height="1.875" rx="4"/><rect x="191" y="158" width="59.566" height="1.875" rx="4"/><rect x="141" y="158" width="39" height="1.875" rx="4"/><rect y="176" width="59.566" height="1.875" rx="4"/><rect x="70" y="176" width="59.566" height="1.875" rx="4"/><rect x="191" y="176" width="59.566" height="1.875" rx="4"/><rect x="141" y="176" width="39" height="1.875" rx="4"/><rect y="193" width="59.566" height="1.875" rx="4"/><rect x="70" y="193" width="59.566" height="1.875" rx="4"/><rect x="191" y="193" width="59.566" height="1.875" rx="4"/><rect x="141" y="193" width="39" height="1.875" rx="4"/><rect y="212" width="59.566" height="1.875" rx="4"/><rect x="70" y="212" width="59.566" height="1.875" rx="4"/><rect x="191" y="212" width="59.566" height="1.875" rx="4"/><rect x="141" y="212" width="39" height="1.875" rx="4"/></g><path fill="url(#a)" d="M13 44h273v229H13z"/></g></svg>
